packages/katcn/src/icons/svg/flag-solid.svg

<svg width="24" height="24" viewBox="0 0 24 24" fill="none" xmlns="http://www.w3.org/2000/svg">
<path d="M18.4094 5.31658H15.924C14.731 5.31658 13.538 4.81407 12.7427 4.01005C11.5497 2.70352 9.85967 2 8.16961 2H5.5848C4.19299 2 3 3.20603 3 4.61307V5.41709V20.995C3 21.598 3.39766 22 3.99416 22C4.59065 22 4.98831 21.598 4.98831 20.995V14.4623H8.16961C9.36259 14.4623 10.4562 14.9648 11.3509 15.7688C12.5439 16.9749 14.234 17.6784 15.924 17.6784H18.4094C19.9006 17.6784 20.9942 16.4724 20.9942 15.0653V7.92965C21.0936 6.42211 19.9006 5.31658 18.4094 5.31658Z" fill="black"/>
</svg>

<svg xmlns="http://www.w3.org/2000/svg" fill="none" viewBox="0 0 24 24"><path fill="#000" d="M18.41 5.317h-2.486c-1.193 0-2.386-.503-3.181-1.307A6.22 6.22 0 0 0 8.17 2H5.585C4.193 2 3 3.206 3 4.613v16.382c0 .603.398 1.005.994 1.005.597 0 .994-.402.994-1.005v-6.533H8.17c1.193 0 2.286.503 3.18 1.307a6.52 6.52 0 0 0 4.574 1.91h2.485c1.492 0 2.585-1.207 2.585-2.614V7.93c.1-1.508-1.093-2.613-2.585-2.613"/></svg>
